X:4
T:Whelan's Fancy
M:6/8
L:1/8
R:Dbl Jig
K:EDor
D| ~E3 BAF| FEB A(3FAB| ~E3 BAB| dBA FED
| ~E3 BAF|FEB AFA| (3Bcd B BAB|1 dBA FE :|2 dBA (3EFG ||
A|:~BAB e2e| fed ~e2d| ~BAB g2e| fdB ~AFA
|~BAB e2e| fed e2f| g2b/g/ faf|1eBG (3EFG A :|2 eBG ~FE||
